webapp/src/assets/icons/cloudproviders/aws/storage/snapshot.svg

<?xml version="1.0" encoding="UTF-8"?>
<svg width="48px" height="48px" viewBox="0 0 48 48" version="1.1" xmlns="http://www.w3.org/2000/svg" xmlns:xlink="http://www.w3.org/1999/xlink">
    <title>Icon-Resource/Storage/Res_Amazon-Simple-Storage-Service_Bucket_48</title>
    <g id="Icon-Resource/Storage/Res_Amazon-Simple-Storage-Service_Bucket_48" stroke="none" stroke-width="1" fill="none" fill-rule="evenodd">
        <path d="M40.5038,26.1601 L40.7278,24.4941 C42.5118,25.5811 43.0628,26.2091 43.2228,26.4741 C42.7498,26.6171 41.7948,26.4911 40.5038,26.1601 L40.5038,26.1601 Z M22.8018,20.1111 C22.8018,20.0581 22.8448,20.0151 22.8978,20.0151 C22.9128,20.0151 22.9238,20.0251 22.9368,20.0321 L22.8638,20.1791 C22.8308,20.1691 22.8018,20.1491 22.8018,20.1111 L22.8018,20.1111 Z M36.5138,40.7981 C36.5078,40.8431 36.5048,40.8871 36.5048,40.9311 C36.5048,41.0861 36.1258,41.6751 34.4408,42.3401 C33.6898,42.6371 32.8028,42.9031 31.8028,43.1331 C29.2278,43.7291 26.0638,44.0571 22.8958,44.0571 C14.4298,44.0571 9.2888,41.8871 9.2888,40.9311 C9.2888,40.8871 9.2858,40.8431 9.2798,40.7981 L5.4408,12.2851 C5.6878,12.4291 5.9528,12.5661 6.2308,12.7001 C6.3098,12.7381 6.3958,12.7741 6.4778,12.8121 C6.7178,12.9231 6.9668,13.0301 7.2268,13.1341 C7.3388,13.1781 7.4518,13.2221 7.5668,13.2651 C7.8428,13.3691 8.1278,13.4691 8.4228,13.5651 C8.5098,13.5941 8.5928,13.6241 8.6808,13.6511 C9.0598,13.7701 9.4528,13.8841 9.8578,13.9911 C9.9708,14.0211 10.0878,14.0501 10.2028,14.0781 C10.5148,14.1581 10.8328,14.2341 11.1578,14.3061 C11.2988,14.3381 11.4388,14.3691 11.5808,14.3981 C11.9458,14.4751 12.3188,14.5491 12.6978,14.6181 C12.7798,14.6331 12.8588,14.6491 12.9418,14.6641 C13.3998,14.7441 13.8688,14.8181 14.3448,14.8881 C14.4788,14.9071 14.6148,14.9241 14.7508,14.9421 C15.1108,14.9921 15.4758,15.0381 15.8438,15.0811 C15.9938,15.0981 16.1448,15.1161 16.2968,15.1331 C16.7408,15.1801 17.1888,15.2231 17.6398,15.2621 C17.6928,15.2661 17.7468,15.2721 17.8018,15.2761 C18.3058,15.3171 18.8128,15.3501 19.3208,15.3801 C19.4658,15.3881 19.6108,15.3941 19.7568,15.4011 C20.1408,15.4201 20.5248,15.4351 20.9088,15.4481 C21.0598,15.4531 21.2088,15.4581 21.3588,15.4621 C21.8718,15.4731 22.3848,15.4821 22.8958,15.4821 C23.4058,15.4821 23.9188,15.4731 24.4318,15.4621 C24.5818,15.4581 24.7328,15.4531 24.8828,15.4481 C25.2678,15.4351 25.6508,15.4201 26.0338,15.4011 C26.1808,15.3941 26.3258,15.3881 26.4718,15.3801 C26.9808,15.3501 27.4868,15.3171 27.9898,15.2761 C28.0458,15.2711 28.1008,15.2651 28.1558,15.2621 C28.6068,15.2231 29.0518,15.1801 29.4938,15.1331 C29.6478,15.1161 29.7988,15.0981 29.9508,15.0811 C30.3168,15.0381 30.6808,14.9921 31.0398,14.9431 C31.1768,14.9251 31.3148,14.9071 31.4498,14.8871 C31.9248,14.8181 32.3928,14.7441 32.8518,14.6641 C32.9348,14.6491 33.0158,14.6331 33.0988,14.6171 C33.4768,14.5491 33.8478,14.4751 34.2128,14.3981 C34.3558,14.3691 34.4948,14.3381 34.6358,14.3061 C34.9608,14.2331 35.2788,14.1571 35.5918,14.0781 C35.7058,14.0491 35.8228,14.0211 35.9358,13.9921 C36.3418,13.8841 36.7348,13.7701 37.1138,13.6511 C37.2008,13.6241 37.2828,13.5951 37.3678,13.5661 C37.6648,13.4701 37.9518,13.3691 38.2298,13.2641 C38.3428,13.2221 38.4548,13.1791 38.5658,13.1351 C38.8278,13.0301 39.0788,12.9221 39.3218,12.8101 C39.4008,12.7731 39.4848,12.7381 39.5628,12.7011 C39.8408,12.5671 40.1068,12.4291 40.3538,12.2851 L38.5618,25.5911 C34.9248,24.4241 29.8168,22.3071 24.9818,20.0081 C24.9268,18.9011 24.0178,18.0151 22.8978,18.0151 C21.7418,18.0151 20.8018,18.9561 20.8018,20.1111 C20.8018,21.2661 21.7418,22.2061 22.8978,22.2061 C23.3518,22.2061 23.7698,22.0571 24.1128,21.8101 C28.4448,23.8891 33.9758,26.3421 38.2928,27.5881 L36.5138,40.7981 Z M22.8958,4.0001 C33.3148,4.0001 40.6558,7.2281 40.7918,9.0211 L40.7658,9.2291 C40.7478,9.2911 40.7088,9.3541 40.6758,9.4181 C40.6488,9.4701 40.6288,9.5201 40.5918,9.5731 C40.5478,9.6351 40.4828,9.6981 40.4258,9.7611 C40.3748,9.8161 40.3318,9.8711 40.2708,9.9271 C40.2028,9.9881 40.1158,10.0511 40.0348,10.1131 C39.9598,10.1711 39.8938,10.2281 39.8078,10.2871 C39.7168,10.3471 39.6078,10.4091 39.5058,10.4711 C39.4068,10.5301 39.3158,10.5901 39.2048,10.6491 C39.0948,10.7091 38.9658,10.7671 38.8448,10.8271 C38.7208,10.8881 38.6048,10.9481 38.4688,11.0091 C38.3398,11.0661 38.1928,11.1231 38.0548,11.1801 C37.9048,11.2401 37.7638,11.3021 37.6038,11.3611 C37.4558,11.4171 37.2898,11.4711 37.1328,11.5251 C36.9618,11.5841 36.7978,11.6441 36.6158,11.7021 C36.4468,11.7561 36.2608,11.8061 36.0818,11.8591 C35.8918,11.9151 35.7088,11.9721 35.5088,12.0261 C35.3168,12.0781 35.1098,12.1261 34.9098,12.1761 C34.7028,12.2271 34.5028,12.2801 34.2858,12.3301 C34.0698,12.3791 33.8378,12.4241 33.6118,12.4711 C33.3938,12.5161 33.1818,12.5641 32.9538,12.6071 C32.7138,12.6531 32.4568,12.6941 32.2068,12.7371 C31.9768,12.7761 31.7538,12.8181 31.5148,12.8551 C31.2548,12.8951 30.9788,12.9311 30.7088,12.9681 C30.4648,13.0011 30.2268,13.0381 29.9748,13.0681 C29.6818,13.1041 29.3728,13.1341 29.0698,13.1651 C28.8258,13.1911 28.5898,13.2201 28.3398,13.2421 C28.0038,13.2731 27.6518,13.2961 27.3058,13.3201 C27.0728,13.3381 26.8478,13.3581 26.6098,13.3731 C26.2308,13.3951 25.8338,13.4091 25.4408,13.4261 C25.2248,13.4341 25.0148,13.4471 24.7938,13.4541 C24.1748,13.4721 23.5418,13.4821 22.8958,13.4821 C22.2498,13.4821 21.6168,13.4721 20.9968,13.4541 C20.7748,13.4471 20.5628,13.4331 20.3428,13.4251 C19.9528,13.4091 19.5598,13.3951 19.1818,13.3731 C18.9318,13.3571 18.6938,13.3361 18.4488,13.3181 C18.1158,13.2941 17.7758,13.2721 17.4528,13.2421 C17.2018,13.2201 16.9658,13.1901 16.7208,13.1651 C16.4178,13.1341 16.1088,13.1041 15.8168,13.0681 C15.5668,13.0381 15.3298,13.0021 15.0868,12.9681 C14.8168,12.9311 14.5388,12.8961 14.2778,12.8551 C14.0298,12.8171 13.7978,12.7731 13.5588,12.7321 C13.3178,12.6901 13.0708,12.6511 12.8398,12.6071 C12.6078,12.5631 12.3928,12.5151 12.1688,12.4691 C11.9468,12.4221 11.7188,12.3781 11.5058,12.3291 C11.2898,12.2801 11.0908,12.2271 10.8838,12.1761 C10.6838,12.1261 10.4758,12.0781 10.2848,12.0261 C10.0818,11.9721 9.8968,11.9141 9.7038,11.8571 C9.5278,11.8061 9.3448,11.7551 9.1778,11.7021 C8.9928,11.6431 8.8268,11.5831 8.6538,11.5221 C8.4988,11.4691 8.3358,11.4161 8.1908,11.3611 C8.0288,11.3021 7.8878,11.2391 7.7378,11.1791 C7.5998,11.1221 7.4528,11.0651 7.3248,11.0091 C7.1908,10.9481 7.0738,10.8881 6.9498,10.8271 C6.8288,10.7671 6.6988,10.7091 6.5888,10.6481 C6.4788,10.5891 6.3868,10.5291 6.2868,10.4691 C6.1858,10.4081 6.0768,10.3471 5.9868,10.2871 C5.8998,10.2271 5.8318,10.1691 5.7558,10.1101 C5.6768,10.0491 5.5908,9.9871 5.5248,9.9271 C5.4618,9.8701 5.4178,9.8131 5.3658,9.7581 C5.3098,9.6961 5.2468,9.6341 5.2028,9.5731 C5.1648,9.5191 5.1458,9.4671 5.1178,9.4131 C5.0858,9.3511 5.0468,9.2891 5.0298,9.2291 L5.0018,9.0201 C5.1408,7.2271 12.4798,4.0001 22.8958,4.0001 L22.8958,4.0001 Z M45.2548,26.2571 C45.0418,25.1071 43.7168,23.8891 41.0178,22.3471 L42.7338,9.5951 L42.7338,9.5911 L42.7338,9.5901 L42.7848,9.2001 C42.7908,9.1571 42.7938,9.1141 42.7938,9.0711 C42.7938,4.9041 32.3078,2.0001 22.8958,2.0001 C13.4848,2.0001 2.9998,4.9041 2.9998,9.0711 C2.9998,9.1151 3.0028,9.1591 3.0088,9.2031 L3.0608,9.5931 L3.0608,9.5951 L7.2898,41.0091 C7.4208,44.6851 16.9028,46.0571 22.8958,46.0571 C26.2108,46.0571 29.5338,45.7111 32.2528,45.0821 C33.3478,44.8301 34.3308,44.5331 35.1748,44.2001 C37.3408,43.3451 38.4598,42.2711 38.5038,41.0091 L40.2448,28.0801 C41.1968,28.2821 42.0618,28.4051 42.7808,28.4051 C43.7498,28.4051 44.4748,28.2001 44.8668,27.7321 C45.2168,27.3161 45.3548,26.7921 45.2548,26.2571 L45.2548,26.2571 Z" id="AWS-Amazon-Simple-Storage_Bucket_Resource-Icon_light-bg" fill="#7AA116"></path>
    </g>
</svg>

<svg width="48" height="48" xmlns="http://www.w3.org/2000/svg"><path d="m40.504 26.16.224-1.666c1.784 1.087 2.335 1.715 2.495 1.98-.473.143-1.428.017-2.72-.314Zm-17.702-6.049c0-.053.043-.096.096-.096.015 0 .026.01.039.017l-.073.147c-.033-.01-.062-.03-.062-.068Zm13.712 20.687a1.002 1.002 0 0 0-.01.133c0 .155-.378.744-2.063 1.41-.751.296-1.638.562-2.638.792-2.575.596-5.74.924-8.907.924-8.466 0-13.607-2.17-13.607-3.126a.86.86 0 0 0-.01-.133L5.442 12.285c.247.144.512.281.79.415.079.038.165.074.247.112a15.46 15.46 0 0 0 1.089.453c.276.104.56.204.856.3.087.03.17.06.258.086a26.69 26.69 0 0 0 1.522.427 29.753 29.753 0 0 0 1.378.32c.365.077.738.151 1.117.22l.244.046c.458.08.927.154 1.403.224.134.02.27.036.406.054.36.05.725.096 1.093.14l.453.051c.444.047.892.09 1.343.13.053.003.107.01.162.013.504.041 1.01.074 1.519.104.145.008.29.014.436.021.384.02.768.034 1.152.047l.45.014c.513.011 1.026.02 1.537.02a71.769 71.769 0 0 0 1.987-.034c.385-.013.768-.028 1.15-.047l.439-.02c.509-.03 1.015-.064 1.518-.105l.166-.014c.45-.039.896-.082 1.338-.129l.457-.052c.366-.043.73-.089 1.089-.138.137-.018.275-.036.41-.056a50.22 50.22 0 0 0 1.402-.223c.083-.015.164-.03.247-.047a37.893 37.893 0 0 0 2.493-.539l.344-.086a29.31 29.31 0 0 0 1.178-.34c.087-.028.169-.057.254-.086a18.82 18.82 0 0 0 1.954-.756c.079-.037.163-.072.24-.109.279-.134.545-.272.792-.416l-1.792 13.306c-3.637-1.167-8.745-3.284-13.58-5.583a2.092 2.092 0 0 0-2.084-1.993 2.099 2.099 0 0 0-2.096 2.096c0 1.155.94 2.095 2.096 2.095.454 0 .872-.149 1.215-.396 4.332 2.08 9.863 4.532 14.18 5.778l-1.78 13.21ZM22.896 4c10.419 0 17.76 3.228 17.896 5.021l-.026.208c-.018.062-.057.125-.09.19-.027.051-.047.101-.084.154-.044.062-.11.125-.166.188-.051.055-.094.11-.155.166-.068.061-.155.124-.236.186-.075.058-.141.115-.227.174-.091.06-.2.122-.302.184-.1.06-.19.12-.301.178-.11.06-.24.118-.36.178-.124.061-.24.121-.376.182-.13.057-.276.114-.414.171-.15.06-.291.122-.451.181-.148.056-.314.11-.471.164-.171.06-.335.12-.517.177-.17.054-.355.104-.534.157-.19.056-.373.113-.573.167-.192.052-.4.1-.6.15-.206.051-.406.104-.623.154-.216.05-.448.094-.674.141-.218.045-.43.093-.658.136-.24.046-.497.087-.747.13-.23.04-.453.081-.692.118-.26.04-.536.076-.806.113-.244.033-.482.07-.734.1-.293.036-.602.066-.905.097-.244.026-.48.055-.73.077-.336.031-.688.054-1.034.078-.233.018-.458.038-.696.053-.38.022-.776.036-1.17.053-.215.008-.425.021-.646.028a65.284 65.284 0 0 1-3.797 0c-.222-.007-.434-.02-.654-.029-.39-.016-.783-.03-1.161-.052-.25-.016-.488-.037-.733-.055-.333-.024-.673-.046-.996-.076-.251-.022-.487-.052-.732-.077-.303-.03-.612-.06-.904-.097-.25-.03-.487-.066-.73-.1-.27-.037-.548-.072-.81-.113-.247-.038-.48-.082-.718-.123-.241-.042-.488-.08-.72-.125-.231-.044-.446-.092-.67-.138-.222-.047-.45-.09-.663-.14-.216-.049-.415-.102-.622-.153-.2-.05-.408-.098-.6-.15-.202-.054-.387-.112-.58-.169-.176-.05-.36-.102-.526-.155-.185-.059-.351-.119-.524-.18-.155-.053-.318-.106-.463-.16-.162-.06-.303-.123-.453-.183-.138-.057-.285-.114-.413-.17-.134-.06-.251-.12-.375-.182-.121-.06-.251-.118-.361-.179-.11-.059-.202-.119-.302-.179-.101-.06-.21-.122-.3-.182-.087-.06-.155-.118-.231-.177-.08-.06-.165-.123-.231-.183-.063-.057-.107-.114-.16-.169-.055-.062-.118-.124-.162-.185-.038-.054-.057-.106-.085-.16-.032-.062-.071-.124-.088-.184l-.028-.209C5.14 7.227 12.48 4 22.896 4Zm22.359 22.257c-.213-1.15-1.538-2.368-4.237-3.91l1.716-12.752v-.004l.05-.39a.932.932 0 0 0 .01-.13c0-4.167-10.486-7.07-19.898-7.07C13.485 2 3 4.903 3 9.07c0 .044.003.088.009.132l.052.39v.002L7.29 41.01c.13 3.676 9.613 5.048 15.606 5.048 3.315 0 6.638-.346 9.357-.975a20.661 20.661 0 0 0 2.922-.882c2.166-.855 3.285-1.929 3.329-3.19l1.74-12.93c.953.202 1.818.325 2.537.325.969 0 1.694-.205 2.086-.673.35-.416.488-.94.388-1.475Z" fill="#7AA116" fill-rule="evenodd"/></svg>
